!!!COM: Palestrina, Giovanni Perluigi da
!!!OPR: Missa Tu es pastor ovium
!!!OMD: Benedictus
!!!OTL: Hosanna
**kern	**kern	**kern	**kern	**kern
*Ibass	*Itenor	*Itenor	*Icalto	*Icant
!Bassus	!Tenor 2	!Tenor 1	!Altus	!Cantus
*clefF4	*clefGv2	*clefGv2	*clefG2	*clefG2
*k[b-]	*k[b-]	*k[b-]	*k[b-]	*k[b-]
*G:dor	*G:dor	*G:dor	*G:dor	*G:dor
*M4/2	*M4/2	*M4/2	*M4/2	*M4/2
=41	=41	=41	=41	=41
0r	1r	1r	0r	1dd
.	1a	1d	.	[1ff
=42	=42	=42	=42	=42
0r	1.a	1.f	0r	2ff]
.	.	.	.	2ee
.	.	.	.	2dd
.	2g	2e	.	2cc
=43	=43	=43	=43	=43
0r	2f	2d	0r	2b-
.	2e	2c	.	2a
.	2d	2B-	.	2g
.	2c	2A	.	2cc
=44	=44	=44	=44	=44
0r	2d	2G	0r	2b-
.	2e-	2.c	.	2.a
.	[1d	.	.	.
.	.	4B-	.	4g
.	.	4B-	.	[2g
.	.	8A	.	.
.	.	8G	.	.
=45	=45	=45	=45	=45
1D	1d]	1A	1a	2g]
.	.	.	.	2f#
[1d	2r	1G	[1b-	1g
.	2d	.	.	.
=46	=46	=46	=46	=46
2d]	2f	0r	2b-]	0r
2c	2e	.	2a	.
2B-	2d	.	2g	.
2A	2c	.	2f	.
=47	=47	=47	=47	=47
2G	2B-	1d	2g	0r
2F#	2A	.	2a	.
2G	2G	2d	2b-	.
2F	[2c	2f	[2a	.
=48	=48	=48	=48	=48
2C	4c]	2e-	4a]	0r
.	4B-	.	4g	.
2E-	2G	2c	1g	.
1D	1A	[1d	.	.
.	.	.	2f#	.
=49	=49	=49	=49	=49
1G	1B-	2d]	2g	1dd
.	.	4c	1b-	.
.	.	4B-	.	.
1F	2r	1c	.	[1ff
.	2F	.	2a	.
=50	=50	=50	=50	=50
0r	2B-	2d	2b-	2ff]
.	2c	2e	2g	2ee
.	2d	2f	1r	2dd
.	2e-	[2g	.	2cc
=51	=51	=51	=51	=51
0r	1d	4g]	1r	4b-
.	.	4f	.	4a
.	.	2f	.	1dd
.	1A	1e	1a	.
.	.	.	.	2cc#
=52	=52	=52	=52	=52
2r	1G	2g	1.b-	0dd
2G	.	2d	.	.
[1B-	1r	[1d	.	.
.	.	.	2a	.
=53	=53	=53	=53	=53
2B-]	2r	2d]	2g	0r
2A	2F	2c	2f	.
2G	2G	2B-	2e-	.
2F	2A	2A	2d	.
=54	=54	=54	=54	=54
2E-	2B-	4G	0e-	0r
.	.	4A	.	.
2D	2B-	1B-	.	.
1C	1c	.	.	.
.	.	2A	.	.
=55	=55	=55	=55	=55
1BB-	1f	2B-	2d	2r
.	.	2B-	2d	2dd
1BB-	2r	[1d	[1B-	[1ff
.	2d	.	.	.
=56	=56	=56	=56	=56
1.BB-	1.f	2d]	2B-]	2ff]
.	.	2c	2c	2ee
.	.	4B-	2d	2dd
.	.	4A	.	.
2C	2e	2G	2e	2cc
=57	=57	=57	=57	=57
2D	2d	1F	1f	2b-
2F	2c	.	.	2a
2G	2B-	2r	2d	2g
2F	2A	4A	2f	[2cc
.	.	4B-	.	.
=58	=58	=58	=58	=58
1C	2G	4c	2e	4cc]
.	.	4d	.	4b-
.	1c	4e	4c	2a
.	.	4f	4d	.
1C	.	1e	4e	1g
.	.	.	4f	.
.	2B-	.	[2g	.
=59	=59	=59	=59	=59
0D	0A	1d	2g]	0dd
.	.	.	4f#	.
.	.	.	4e	.
.	.	1d	1f#	.
=60	=60	=60	=60	=60
0G	0G	0d	0g	0b
==	==	==	==	==
*-	*-	*-	*-	*-
!!!CDT: 1525/^1526/-1594/2/2
!!!OCY: Italia
!!!AGN: Mass (Parody)
!!!AST: renaissance, vocal
!!!ASW: Motet (Palestrina)
!!!PWK: Masses, Book 7
!!!RNB: Cadence finals: D
!!!YOR: Le Opere Complete, v. 23, p. 115
!!!YOO: Rome, Italy: Fratelli Scalera
!!!END: 1992//
!!!EED: John Miller
!!!YEC: Copyright 2000, John Miller
!!!YEN: United States of America
!!!YEM: Rights to all derivative electronic formats reserved.
!!!YEM: Refer to licensing agreement for further details.
!!!YEM: This file must be accompanied by the licensing agreement.
!!!YEM: A copy of the licensing agreement may be found at http://www.music-cog.ohio-state.edu/HumdrumDatabases/Palestrina/license.txt
!!!EMD: converted to Humdrum by Bret Aarden
